X:444
L:1/8
M:2/4
K:C
 G/G/ |:"C" EG ce |"G7" fB B/A/B | fB fB |"C" ag eG/G/ | EG ce |"G7" fB B/A/B | fB fB |1 
"C" cc cG/G/ :|2"C" cc c z |:[K:G]"G" B2 B/A/G | ed d/c/B |"D7" dc c/B/A |"G" GB dg | B2 B/A/G | 
 ed d/c/B |"D7" dc c/B/A |"G" GB G z ::[K:C]"C" e2 d/c/B/A/ | AG c2 |"G7" DG Bd |"C" EG ce | 
 e2 d/c/B/A/ | AG c2 |"G7" DG Bd |"C" cc c z :|

